X:1
T:Let Me in this Ae Night
B:Johnson, The Scots Musical Museum, vol.IV p.320, 1792.
F:http://www.folkinfo.org/songs
L:1/8
Q:1/4=100
M:2/4
K:Gmix
G|F3/ E/ D E|F3/ F/ F3/ A/|G3/ G/ G3/ A/|d3/ c/ A3/ G/|
w:O las-sie are ye sleep-in yet, Or are ye wauk-in, I wad wit, For
F3/ E/ D E|F3/ G/ A c|f3/ d/ c3/ A/|G2 A G|
w:loove has bound me hand and fitt, And I wad fain be in jo. O
F3/ E/ D A|d2 d A|c2 (cG)|A2 A G|
w:let me in this ae night, This ae, ae,_ ae night; O
F3/ E/ D A|d3/ e/ f3/ d/|c/ A3/ G F|G2 A|]
w:let me in this ae night, And I'll no come back a-gain, jo.